X: 3412
M: C
L: 1/8
K: G
(ge) |\
d2G2 cBAG | d2G2 cBAG |\
e2A2 ABcA | e2A2 ABcA |\
d2cB g2fe | d2cB (cB)AG |\
|: (ga) |\
b2gb a2fa | g2dg (ed)cB |\
e2A2 ABcA | e2A2 A2(ga) |\
b2gb a2fa | g2dg (ed)cB |\


